X: 15657
T: Going To The Well For Water
R: slide
M: 12/8
K: Cmajor
|:"C"G2"c"e G2"c"e G2"c"e ed"c"c|"F"A2"f"f A2"f"f A2"f"f fe"f"d|
"G"Bc"g"B AB"g"A GB"g"d g2"g"e|1 "F"fe"f"d "G"Bc"g"d "C"(c2"c"c) cB"F"A:|2 "F"fe"f"d "G"Bc"g"d "C"(c2"c"c) c2"G"d||
|:"C"e2"c"e ed"c"c "G"d2"g"d dc"g"B|"C"(c2"c"c) cB"F"A "G"(B2"g"B) BA"g"G|
"F"FA"f"A FA"f"A "C"EG"c"G EG"c"G|1 "G"DC"g"D d2"g"c BA"g"B "C"c2"G"d:|2 "G"DC"g"D d2"g"c BA"g"B "C"cB"F"A||

